folder-file.svg

<svg fill="currentColor" viewBox="0 0 24 24"><path d="M15 8c-2.21 0-4 1.79-4 4v8H4a2 2 0 0 1-2-2V6c0-1.11.89-2 2-2h6l2 2h8a2 2 0 0 1 2 2v2.17l-1.59-1.58-.58-.59zm8 6v7c0 1.11-.89 2-2 2h-6a2 2 0 0 1-2-2v-9c0-1.1.9-2 2-2h4zm-2 .83L18.17 12H18v3h3z"/></svg>

<svg  viewBox="0 0 24 24" fill="currentColor"><path  d="M15 8C12.79 8 11 9.79 11 12V20H4C2.9 20 2 19.11 2 18V6C2 4.89 2.89 4 4 4H10L12 6H20C21.1 6 22 6.89 22 8V10.17L20.41 8.59L19.83 8H15M23 14V21C23 22.11 22.11 23 21 23H15C13.9 23 13 22.11 13 21V12C13 10.9 13.9 10 15 10H19L23 14M21 14.83L18.17 12H18V15H21V14.83Z"/></svg>
